src/assets/selectIconsSpells/buff_1.svg

<svg xmlns="http://www.w3.org/2000/svg" viewBox="0 0 512 512"><path d="M0 0h512v512H0z"/><path fill="#fff" d="M418.176 280.486c21.38-30.735 42.538-61.17 64.123-92.267-30.341-4.086-59.886-8.048-89.888-12.134 13.6-39.089 26.955-77.509 40.735-117.15-41.247 23.546-81.281 46.413-121.716 69.462-10.34-34.333-20.703-68.359-31.223-103.298-18.23 32.498-35.798 63.965-53.603 95.676-33.719-32.262-66.83-64.029-101.163-96.841 7.803 45.31 15.426 89.155 22.986 133.733-43.964-7.009-86.833-13.655-130.986-20.553 31.892 37.199 63.052 73.548 94.4 110.197-27.932 25.67-55.681 51.161-84.029 77.383 36.648 8.173 71.958 16.16 108.18 24.332-13.236 29.451-26.221 58.358-39.577 88.061 23.718-6.284 26.68-7.016 49.303-13.118 0 0 22.35-68.463 32.866-84.747 4.806-7.29 5.267-13.96 3.675-22.182-6.668-34.118-12.749-68.32-19.108-102.447-.39-1.934-.47-3.335 1.543-4.647 23.978-16.689 36.344-21.244 73.797-47.78 17.295 19.699 34.47 39.477 51.997 59.647a2368.384 2368.384 0 0 0-17.837 16.364c-.46.46-1.622.69-2.324.46-6.52-1.943-13.03-3.876-19.588-5.968-7.708-7.292-13.68-15.293-19.808-21.482-1.703 6.36-3.456 12.327-4.887 18.457 8.984 10.945 11.236 14.184 16.904 19.77 1.162 1.17 1.861 3.024 1.861 4.576 1.549 31.612.61 62.646 2.134 89.81 3.374.932 6.439 1.703 10.196 2.795-.773-34.13-1.353-67.71-2.244-101.52 2.053 0 3.995 1.012 5.618 3.877 19.688 32.305 37.333 64.041 54.95 93.455 2.944-1.712 5.858-3.415 8.843-5.127-1.513 4.573-6.594 10.905-9.314 14.822-9.388 14.727-25.093 22.027-37.995 30.863-15.624 24.762-28.247 50.076-38.257 67.658l14.789 37.443c.37.118 26.19-39.152 38.908-59.09 21.19 18.717 41.987 37.136 63.39 56.035 1.55-41.042 3.196-80.801 4.692-121.048 44.704 3.844 88.763 7.623 134.04 11.53-26.01-32.444-51.169-63.604-76.383-95.007zm-164.443-117.08c12.948-8.062 25.587-15.822 38.506-23.725 6.389 11.007 12.479 21.863 18.646 32.878-10.625 6.59-21.17 13.189-32.107 19.849-8.181-9.614-16.593-19.147-25.045-29.002zm51.184 59.027c-6.29-7.37-12.568-14.512-19.197-22.183 11.055-6.75 22.062-13.57 33.307-20.48 5.74 10.085 11.368 19.93 17.066 30.013-16.835 10.475-33.47 20.63-49.834 30.715-.11-.232-.23-.311-.459-.47 6.317-5.739 12.598-11.476 19.117-17.595zm-26.138 34.74c20.55-12.639 40.83-25.047 61.42-37.765 6.128 10.546 11.946 20.86 18.115 31.716-20.52 12.719-40.879 25.127-61.54 37.844-6.018-10.775-11.985-21.25-17.995-31.795zm40.479 71.033c-5.739-10.155-11.476-20.08-17.175-30.325 19.238-11.786 38.346-23.574 57.744-35.51 5.698 10.073 11.438 20.079 17.135 30.245-19.31 12.015-38.466 23.733-57.704 35.59z"/></svg>

<?xml version="1.0" encoding="UTF-8" standalone="no"?>
<!DOCTYPE svg PUBLIC "-//W3C//DTD SVG 1.1//EN" "http://www.w3.org/Graphics/SVG/1.1/DTD/svg11.dtd">
<svg width="100%" height="100%" viewBox="0 0 512 512" version="1.1" xmlns="http://www.w3.org/2000/svg" xmlns:xlink="http://www.w3.org/1999/xlink" xml:space="preserve" xmlns:serif="http://www.serif.com/" style="fill-rule:evenodd;clip-rule:evenodd;stroke-linejoin:round;stroke-miterlimit:2;">
    <rect x="0" y="0" width="512" height="512" style="fill-rule:nonzero;"/>
    <path d="M418.176,280.486C439.556,249.751 460.714,219.316 482.299,188.219C451.958,184.133 422.413,180.171 392.411,176.085C406.011,136.996 419.366,98.576 433.146,58.935C391.899,82.481 351.865,105.348 311.43,128.397C301.09,94.064 290.727,60.038 280.207,25.099C261.977,57.597 244.409,89.064 226.604,120.775C192.885,88.513 159.774,56.746 125.441,23.934C133.244,69.244 140.867,113.089 148.427,157.667C104.463,150.658 61.594,144.012 17.441,137.114C49.333,174.313 80.493,210.662 111.841,247.311C83.909,272.981 56.16,298.472 27.812,324.694C64.46,332.867 99.77,340.854 135.992,349.026C122.756,378.477 109.771,407.384 96.415,437.087C120.133,430.803 123.095,430.071 145.718,423.969C145.718,423.969 168.068,355.506 178.584,339.222C183.39,331.932 183.851,325.262 182.259,317.04C175.591,282.922 169.51,248.72 163.151,214.593C162.761,212.659 162.681,211.258 164.694,209.946C188.672,193.257 201.038,188.702 238.491,162.166C255.786,181.865 272.961,201.643 290.488,221.813C284.514,227.237 278.569,232.692 272.651,238.177C272.191,238.637 271.029,238.867 270.327,238.637C263.807,236.694 257.297,234.761 250.739,232.669C243.031,225.377 237.059,217.376 230.931,211.187C229.228,217.547 227.475,223.514 226.044,229.644C235.028,240.589 237.28,243.828 242.948,249.414C244.11,250.584 244.809,252.438 244.809,253.99C246.358,285.602 245.419,316.636 246.943,343.8C250.317,344.732 253.382,345.503 257.139,346.595C256.366,312.465 255.786,278.885 254.895,245.075C256.948,245.075 258.89,246.087 260.513,248.952C280.201,281.257 297.846,312.993 315.463,342.407C318.407,340.695 321.321,338.992 324.306,337.28C322.793,341.853 317.712,348.185 314.992,352.102C305.604,366.829 289.899,374.129 276.997,382.965C261.373,407.727 248.75,433.041 238.74,450.623L253.529,488.066C253.899,488.184 279.719,448.914 292.437,428.976C313.627,447.693 334.424,466.112 355.827,485.011C357.377,443.969 359.023,404.21 360.519,363.963C405.223,367.807 449.282,371.586 494.559,375.493C468.549,343.049 443.39,311.889 418.176,280.486ZM253.733,163.406C266.681,155.344 279.32,147.584 292.239,139.681C298.628,150.688 304.718,161.544 310.885,172.559C300.26,179.149 289.715,185.748 278.778,192.408C270.597,182.794 262.185,173.261 253.733,163.406ZM304.917,222.433C298.627,215.063 292.349,207.921 285.72,200.25C296.775,193.5 307.782,186.68 319.027,179.77C324.767,189.855 330.395,199.7 336.093,209.783C319.258,220.258 302.623,230.413 286.259,240.498C286.149,240.266 286.029,240.187 285.8,240.028C292.117,234.289 298.398,228.552 304.917,222.433ZM278.779,257.173C299.329,244.534 319.609,232.126 340.199,219.408C346.327,229.954 352.145,240.268 358.314,251.124C337.794,263.843 317.435,276.251 296.774,288.968C290.756,278.193 284.789,267.718 278.779,257.173ZM319.258,328.206C313.519,318.051 307.782,308.126 302.083,297.881C321.321,286.095 340.429,274.307 359.827,262.371C365.525,272.444 371.265,282.45 376.962,292.616C357.652,304.631 338.496,316.349 319.258,328.206Z" style="fill:rgb(255,55,55);fill-rule:nonzero;"/>
</svg>
